icons/pause-24.svg

<svg xmlns="http://www.w3.org/2000/svg" width="24" height="24" viewBox="0 0 24 24"><path d="M9 3H7.5C6.67157 3 6 3.67157 6 4.5V19.5C6 20.3284 6.67157 21 7.5 21H9C9.82843 21 10.5 20.3284 10.5 19.5V4.5C10.5 3.67157 9.82843 3 9 3Z" fill="black"/><path d="M16.5 3H15C14.1716 3 13.5 3.67157 13.5 4.5V19.5C13.5 20.3284 14.1716 21 15 21H16.5C17.3284 21 18 20.3284 18 19.5V4.5C18 3.67157 17.3284 3 16.5 3Z" fill="black"/></svg>

<svg xmlns="http://www.w3.org/2000/svg" width="24" height="24" viewBox="0 0 24 24"><path d="M9 3H7.5A1.5 1.5 0 0 0 6 4.5v15A1.5 1.5 0 0 0 7.5 21H9a1.5 1.5 0 0 0 1.5-1.5v-15A1.5 1.5 0 0 0 9 3Zm7.5 0H15a1.5 1.5 0 0 0-1.5 1.5v15A1.5 1.5 0 0 0 15 21h1.5a1.5 1.5 0 0 0 1.5-1.5v-15A1.5 1.5 0 0 0 16.5 3Z"/></svg>
